X: 32941
T: President Garfield's
R: hornpipe
M: 4/4
K: Bmixolydian
AECE AECE|AGAB c_ccd|eBGB eBGB|edef e=dcB|
AECE AECE|AGAB c_ccd|efgf e=dcB|1 A/B/AGB A=dcB:|2 A/B/AGB A2ag||
f=dAF =DFAf|ecAE CEAe|defe defe|cefe ceag|
f=dAF =DFAf|ecAE CEAe|^degf e=dcB|1 A/B/AGB A2ag:|2 A/B/AGB A4||

